X: 1
T: Hairy Dogleaf, The
M: 4/4
L: 1/8
R: reel
K: Dmaj
|: D2 B2 A2 FA | dcdA BAFE | D2 B2 A2 FA | dBAF E4 |
D2 B2 A2 FA | dcdA BAFA | B3 B BAFA | dBAF E4 :|
|: dcdf e2 cA |dcdA BAFA | dcdf efge | a2 af gece |
d3 f e2 cA | dcdA BAFA | B3 B BAFA | dBAF E4 :|
